public/svgs/filled-heart.svg

<?xml version="1.0" encoding="UTF-8"?>
<svg width="9px" height="8px" viewBox="0 0 9 8" version="1.1" xmlns="http://www.w3.org/2000/svg" xmlns:xlink="http://www.w3.org/1999/xlink">
    <!-- Generator: Sketch 63.1 (92452) - https://sketch.com -->
    <desc>Created with Sketch.</desc>
    <g id="Page-1" stroke="none" stroke-width="1" fill="none" fill-rule="evenodd">
        <g id="Icons" transform="translate(-62.000000, -89.000000)" fill="#B6B6CA">
            <g id="favorite2" transform="translate(62.000000, 89.000000)">
                <path d="M7.27,0.22 C6.72418537,-0.0332875955 6.0996586,-0.0573972694 5.53594134,0.153057172 C4.97222409,0.363511613 4.51629126,0.790992872 4.27,1.34 L4.27,1.34 C4.02370874,0.790992872 3.56777591,0.363511613 3.00405866,0.153057172 C2.4403414,-0.0573972694 1.81581463,-0.0332875955 1.27,0.22 C0.1,0.8 -0.46,2.28 0.46,4 C1.09,5.24 2.2,6.16 4.11,7.76 C4.20086119,7.8317994 4.32913881,7.8317994 4.42,7.76 C6.33,6.16 7.42,5.24 8.07,4.03 C9,2.28 8.43,0.8 7.27,0.22" id="Path"></path>
            </g>
        </g>
    </g>
</svg>

<svg height="8" viewBox="0 0 9 8" width="9" xmlns="http://www.w3.org/2000/svg"><path d="m7.27.22c-.54581463-.2532876-1.1703414-.27739727-1.73405866-.06694283-.56371725.21045444-1.01965008.6379357-1.26594134 1.18694283-.24629126-.54900713-.70222409-.97648839-1.26594134-1.18694283-.56371726-.21045444-1.18824403-.18634477-1.73405866.06694283-1.17.58-1.73 2.06-.81 3.78.63 1.24 1.74 2.16 3.65 3.76.09086119.0717994.21913881.0717994.31 0 1.91-1.6 3-2.52 3.65-3.73.93-1.75.36-3.23-.8-3.81" fill="#b6b6ca" fill-rule="evenodd"/></svg>
